!!!OTL@@DE: Drei Reiter am Thor
!!!ONB: Volkslied (18. Jahrhundert)
!!!ODT: 1776
!!!OMD: Andante con moto
!!!ONB: Altes Volkslied. Schon im 16. Jahrh. bekannt
!!!OCL: Erk, Ludwig
!!!GCO: Deutscher Liederschatz, Band 1
**kern	**kern	**kern
*staff3	*staff2	*staff1
*Ipiano	*Ipiano	*Ivox
*>[A,A,B]	*>[A,A,B]	*>[A,A,B]
*>norep[A,B]	*>norep[A,B]	*>norep[A,B]
*>A	*>A	*>A
*clefF4	*clefG2	*clefG2
*k[f#]	*k[f#]	*k[f#]
*G:	*G:	*G:
*M6/8	*M6/8	*M6/8
*MM92	*MM92	*MM92
8r	8d/	8d/
=1	=1	=1
4GG/	8B/ 8d/L	8d/
.	8B/ 8d/ 8g/	8g/
8G\	8B/ 8d/ 8g/J	8g/
8G/L	8B/ 8d/ 8g/L	8g/
8D/	8d/ 8f#/ 8a/	8a/
8GG/J	8d/ 8g/ 8b/J	8b/
=2	=2	=2
4D\	8.d/ 8.g/ 8.b/L	8.b/
.	16d/ 16f#/ 16a/k	16a/
8D\	8d/ 8f#/ 8a/J	8a/
4D\	4d/ 4f#/ 4a/	4a/
8D\ 8A\	8d/ 8f#/ 8dd/	8dd\
=3	=3	=3
4G\	[4.d/ [4.g/ [4.b/	[4.b\
8GG/	.	.
8GG/	8d/] 8g/] 8b/]	8b\]
8r	8r	8r
=:|!	=:|!	=:|!
*>B	*>B	*>B
8G\	(16g/LL	16g/LL
.	16b/JJ)	16b/JJ
=4	=4	=4
4GG/	8b\ 8dd\L	8dd\
.	8b\ 8dd\	8dd\
8G\	8b\ 8dd\J	8dd\
4G\	8.b\ (8.dd\L	8.dd\
.	16cc\ 16ee\k)	16ee\
8G\	8b\ 8dd\J	8dd\
=5	=5	=5
4D\	8b\ (8dd\L	8dd\
.	8a\ 8cc\)	8cc\
8D\	8a\ 8cc\J	8cc\
8D\L	4a\ 4cc\	4cc\
8E\	.	.
8F#\J	8a\ 8cc\	8cc\
=6	=6	=6
4G\	8g/ 8b/L	8b\
.	8g/ 8b/	8b\
8G\	8g/ 8b/J	8b\
8B\L	8.dd/L	8.dd\
8c\	.	.
.	16cc/k	16cc\
8c#\J	8b/J	8b\
=7	=7	=7
4d\	(8g/ 8b/L	8b/L
.	8f#/) 8a/	8a/J
8D\ 8d\	8f#/ 8a/J	8a/
4D\ 4d\	4f#/ 4a/	4a/
8D\ 8A\	8d/ 8f#/ 8dd/	8dd\
=8	=8	=8
4G\	4d/ 4g/ 4b/	4b\
8G\	8d/ 8g/ 8b/	8b\
4D\	4c/ 4f#/ 4a/	4a/
8D\	8c/ 8f#/ 8a/	8a/
=9	=9	=9
4.E\	4.B/ 4.e/ 4.g/	4.g/
4.F#\	4.d/ 4.a/ 4.dd/	4.dd^\
=10	=10	=10
4G\	8.g/ (8.b/L	8.b\
.	16a/ 16cc/k)	16cc\
8G\	8g/ 8b/J	8b\
4D\	8c/ 8f#/ 8a/L	8a/
.	8B/ 8g/	8g/
8D\	8c/ 8f#/ 8a/J	8a/
=11	=11	=11
[4.GG/ [4.D/	[4.B/ [4.g/	[4.g/
8GG/] 8D/]	8B/] 8g/]	8g/]
8r	8r	8r
==	==	==
*-	*-	*-
!!!ENC: Craig Stuart Sapp
!!!END: 2004/05/26/
!!!EFL: 041/651
